libs/ui/packages/crypto-icons/src/svg/BNTY.svg

<svg width="24" height="24" viewBox="0 0 24 24" fill="none">
<path d="M18.8958 14.55C19.4733 14.865 19.6661 15.5895 19.2806 16.1565C18.9603 16.7235 18.2231 16.9125 17.6456 16.5975C17.4716 16.4972 17.325 16.3557 17.2187 16.1854C17.1124 16.0151 17.0496 15.8213 17.0358 15.621H14.0846L12.6731 18.0142C12.6731 18.0457 12.6408 18.0773 12.6093 18.1088C12.9296 18.2978 13.1546 18.6758 13.1546 19.0853C13.1546 19.7153 12.6093 20.25 11.9673 20.25C11.3261 20.25 10.7808 19.746 10.7808 19.0853C10.7808 18.6758 11.0058 18.3293 11.3261 18.1088C11.3261 18.0773 11.2938 18.0457 11.2616 18.0142L9.85081 15.6217H6.89956C6.86731 16.0305 6.64306 16.377 6.28981 16.5968C5.71231 16.9117 4.97506 16.7235 4.65406 16.1565C4.33306 15.5895 4.52581 14.8657 5.10331 14.5507C5.48806 14.3302 5.90506 14.3302 6.25831 14.5192C6.28981 14.4877 6.28981 14.4248 6.32206 14.3932L7.76581 12L6.35431 9.6075C6.32034 9.57285 6.29783 9.52861 6.28981 9.48075C5.93731 9.63825 5.48806 9.66975 5.13481 9.44925C4.99891 9.37428 4.8793 9.27299 4.78298 9.15129C4.68666 9.02959 4.61554 8.88992 4.57379 8.74044C4.53204 8.59095 4.52048 8.43465 4.5398 8.28065C4.55912 8.12665 4.60893 7.97804 4.68631 7.8435C5.00656 7.2765 5.74456 7.0875 6.32206 7.4025C6.70681 7.623 6.89956 8.001 6.93181 8.379H9.91456L11.3261 5.98575C11.3261 5.95425 11.3583 5.92275 11.3898 5.89125C11.2232 5.78851 11.0856 5.64485 10.9902 5.47392C10.8947 5.303 10.8446 5.11051 10.8446 4.91475C10.8446 4.28475 11.3898 3.75 12.0318 3.75C12.6731 3.75 13.2183 4.254 13.2183 4.91475C13.2183 5.32425 12.9933 5.67075 12.6731 5.89125C12.6731 5.92275 12.7053 5.95425 12.7376 5.98575L14.1483 8.37825H17.0996C17.1318 7.9695 17.3561 7.623 17.7093 7.40325C18.2868 7.08825 19.0241 7.2765 19.3451 7.8435C19.4224 7.97808 19.4722 8.12673 19.4914 8.28076C19.5107 8.4348 19.4991 8.59112 19.4573 8.74061C19.4154 8.8901 19.3443 9.02976 19.2479 9.15143C19.1515 9.2731 19.0318 9.37435 18.8958 9.44925C18.5111 9.66975 18.0941 9.66975 17.7408 9.48075C17.7093 9.51225 17.7093 9.57525 17.6771 9.60675L16.2656 12L17.6771 14.3925C17.711 14.4272 17.7335 14.4714 17.7416 14.5192C18.0941 14.3617 18.5433 14.3302 18.8966 14.5507L18.8958 14.55ZM13.5393 11.2125C13.5393 10.5517 12.9941 10.0162 12.3206 10.0162H10.7808C10.7432 10.0158 10.7059 10.0227 10.6709 10.0367C10.636 10.0507 10.6042 10.0715 10.5774 10.0979C10.5505 10.1242 10.5292 10.1556 10.5145 10.1903C10.4999 10.2249 10.4923 10.2621 10.4921 10.2997V13.7003C10.4921 13.8577 10.6203 13.9838 10.7808 13.9838H12.3206C12.9941 13.9838 13.5393 13.4482 13.5393 12.7875C13.5393 12.504 13.4433 12.2205 13.2506 12.0315C13.4111 11.7795 13.5393 11.5275 13.5393 11.2125Z" fill="#FD7A3D"/>
</svg>

<svg width="24" height="24" viewBox="0 0 24 24" fill="none"><path fill="#fd7a3d" d="M18.896 14.55a1.1 1.1 0 0 1 .385 1.607c-.32.567-1.058.756-1.635.44a1.22 1.22 0 0 1-.61-.976h-2.951l-1.412 2.393c0 .032-.032.063-.064.095.32.189.546.567.546.976 0 .63-.546 1.165-1.188 1.165a1.173 1.173 0 0 1-1.186-1.165c0-.41.225-.756.545-.976 0-.032-.032-.063-.064-.095L9.85 15.622H6.9a1.25 1.25 0 0 1-.61.975c-.578.315-1.315.127-1.636-.44a1.17 1.17 0 0 1 .45-1.606c.384-.22.801-.22 1.154-.032.032-.031.032-.094.064-.126L7.766 12 6.354 9.608a.24.24 0 0 1-.064-.127c-.353.157-.802.189-1.155-.032a1.17 1.17 0 0 1-.449-1.606c.32-.566 1.059-.755 1.636-.44.385.22.578.598.61.976h2.983l1.411-2.393c0-.032.032-.063.064-.095a1.15 1.15 0 0 1-.545-.976c0-.63.545-1.165 1.187-1.165.641 0 1.186.504 1.186 1.165 0 .41-.225.756-.545.976 0 .032.032.063.065.095l1.41 2.392H17.1c.032-.409.256-.755.61-.975.577-.315 1.314-.126 1.635.44a1.17 1.17 0 0 1-.45 1.606c-.384.22-.8.22-1.154.032-.032.031-.032.094-.064.126L16.266 12l1.411 2.393a.24.24 0 0 1 .065.126c.352-.157.801-.189 1.155.032zm-5.357-3.338c0-.66-.545-1.196-1.218-1.196h-1.54a.29.29 0 0 0-.267.174.3.3 0 0 0-.022.11v3.4c0 .158.128.284.289.284h1.54c.673 0 1.218-.536 1.218-1.197 0-.283-.096-.567-.288-.756.16-.252.288-.504.288-.819"/></svg>
